X: 90
T:Johnny O'Leary's #2
R:Jig
Z:Added by alf.warnock@rogers.com, after Vince Milne workshop in Ottawa, Feb 1
Z:8
M:6/8
L:1/8
K:Em
|:dcA G2A|BA^G ABc|dcA GBA|GEE E2c|
dcA G2A|BA^G ABc|dcA GBA|GEE E2z:|
gfg e2f|gfg e2f|gfg eag|fdc def|
gfg aba|gef g2e|dBA GBA|GEE E2z:|

